src/assets/svg/svgSetting.svg

<?xml version="1.0" encoding="UTF-8" standalone="no"?>
<!DOCTYPE svg PUBLIC "-//W3C//DTD SVG 1.1//EN" "http://www.w3.org/Graphics/SVG/1.1/DTD/svg11.dtd">
<svg width="100%" height="100%" viewBox="0 0 512 512" version="1.1" xmlns="http://www.w3.org/2000/svg" xmlns:xlink="http://www.w3.org/1999/xlink" xml:space="preserve" xmlns:serif="http://www.serif.com/" style="fill-rule:evenodd;clip-rule:evenodd;stroke-linejoin:round;stroke-miterlimit:2;">
    <g transform="matrix(4.72143,0,0,4.72143,-4159.46,-1894.99)">
        <path d="M936.29,467.41C935.83,466.95 935.38,466.957 934.94,467.43C928.97,473.88 923.75,465.25 921.77,460.32C921.32,459.21 920.34,457.94 919.22,457.5C915.973,456.227 912.937,454.18 910.11,451.36C903.563,444.853 896.933,438.22 890.22,431.46C887.86,429.093 886.49,426.807 886.11,424.6C885.377,420.4 886.31,416.83 888.91,413.89C891.16,411.35 893.69,408.93 897.11,408.15C901.85,407.077 906.003,408.337 909.57,411.93C916.077,418.49 922.887,425.35 930,432.51C932.52,435.037 934.453,437.993 935.8,441.38C936.18,442.33 937.44,443.18 938.36,443.56C943.43,445.62 951.9,450.71 945.47,456.94C945.315,457.089 945.227,457.295 945.227,457.51C945.227,457.72 945.311,457.922 945.46,458.07L967.71,480.36C968.034,480.678 968.475,480.842 968.92,480.81C972.28,480.55 974.7,481.16 976.3,484.35C978.327,488.39 980.49,492.693 982.79,497.26C984.21,500.08 981.37,502.41 979.5,504.1C978.06,505.4 976.48,505.23 974.89,504.43C970.07,501.997 965.673,499.783 961.7,497.79C958.76,496.32 959.04,493.43 958.98,490.67C958.973,490.29 958.837,489.967 958.57,489.7L936.29,467.41Z" style="fill-rule:nonzero;"/>
        <path d="M963.29,424C964.123,427.24 965.793,429.673 968.3,431.3C968.704,431.562 969.223,431.57 969.63,431.32C972.923,429.293 976.167,427.347 979.36,425.48C980.567,424.773 981.713,424.83 982.8,425.65C983.073,425.857 983.223,426.13 983.25,426.47C983.517,430.583 982.943,434.02 981.53,436.78C976.97,445.68 969.383,449.467 958.77,448.14C958.403,448.093 958.097,448.21 957.85,448.49C957.01,449.43 956.117,450.34 955.17,451.22C953.62,452.67 952.09,451.88 951.39,450.25C949.26,445.29 944.91,442.44 939.96,440.14C939.215,439.795 938.736,439.046 938.736,438.225C938.736,437.734 938.907,437.258 939.22,436.88C940.533,435.287 941.497,433.643 942.11,431.95C943.06,429.31 942.4,426.53 943.21,423.87C945.58,416.06 952.51,408.87 961.01,407.84C966.03,407.24 972.25,408.88 976,412.6C976.232,412.825 976.374,413.131 976.4,413.46C976.493,414.58 976.073,415.43 975.14,416.01C971.567,418.243 967.77,420.54 963.75,422.9C963.317,423.153 963.163,423.52 963.29,424Z" style="fill-rule:nonzero;"/>
        <path d="M908.12,489.25C907.22,486.023 905.643,483.583 903.39,481.93C902.816,481.508 902.04,481.473 901.43,481.84C897.417,484.267 893.48,486.62 889.62,488.9C887.81,489.96 886.06,488.61 885.92,486.75C885.467,480.55 887.29,475.257 891.39,470.87C895.72,466.25 901.08,464.59 907.34,464.41C910.09,464.32 912.33,463.16 914.41,461.5C916.317,459.973 917.74,460.33 918.68,462.57C920.927,467.897 924.39,471.603 929.07,473.69C929.125,473.715 929.179,473.742 929.232,473.773C930.097,474.27 930.402,475.388 929.907,476.249C929.877,476.301 929.845,476.351 929.81,476.4C927.86,479.11 926.36,481.68 926.52,485.19C926.89,493.26 919.48,501.17 912.91,503.92C907.423,506.213 901.63,505.687 895.53,502.34C893.81,501.39 892.67,499.06 894.83,497.74C898.957,495.22 903.307,492.597 907.88,489.87C908.092,489.74 908.191,489.484 908.12,489.25Z" style="fill-rule:nonzero;"/>
    </g>
</svg>

<svg xmlns="http://www.w3.org/2000/svg" xml:space="preserve" style="fill-rule:evenodd;clip-rule:evenodd;stroke-linejoin:round;stroke-miterlimit:2" viewBox="0 0 512 512"><path d="M936.29 467.41q-.69-.69-1.35.02c-5.97 6.45-11.19-2.18-13.17-7.11-.45-1.11-1.43-2.38-2.55-2.82q-4.87-1.91-9.11-6.14a4294 4294 0 0 1-19.89-19.9q-3.54-3.55-4.11-6.86-1.1-6.3 2.8-10.71c2.25-2.54 4.78-4.96 8.2-5.74q7.11-1.61 12.46 3.78 9.76 9.84 20.43 20.58 3.78 3.79 5.8 8.87c.38.95 1.64 1.8 2.56 2.18 5.07 2.06 13.54 7.15 7.11 13.38a.79.79 0 0 0-.01 1.13l22.25 22.29a1.57 1.57 0 0 0 1.21.45c3.36-.26 5.78.35 7.38 3.54q3.04 6.06 6.49 12.91c1.42 2.82-1.42 5.15-3.29 6.84-1.44 1.3-3.02 1.13-4.61.33q-7.23-3.65-13.19-6.64c-2.94-1.47-2.66-4.36-2.72-7.12a1.36 1.36 0 0 0-.41-.97zm27-43.41q1.25 4.86 5.01 7.3c.404.262.923.27 1.33.02a501 501 0 0 1 9.73-5.84q1.81-1.06 3.44.17.41.31.45.82.4 6.17-1.72 10.31-6.84 13.35-22.76 11.36a.99.99 0 0 0-.92.35q-1.26 1.41-2.68 2.73c-1.55 1.45-3.08.66-3.78-.97-2.13-4.96-6.48-7.81-11.43-10.11a2.113 2.113 0 0 1-.74-3.26q1.97-2.39 2.89-4.93c.95-2.64.29-5.42 1.1-8.08 2.37-7.81 9.3-15 17.8-16.03 5.02-.6 11.24 1.04 14.99 4.76.232.225.374.531.4.86q.14 1.68-1.26 2.55a481 481 0 0 1-11.39 6.89q-.65.38-.46 1.1" style="fill-rule:nonzero" transform="translate(-4159.46 -1894.99)scale(4.72143)"/><path d="M908.12 489.25q-1.35-4.84-4.73-7.32a1.77 1.77 0 0 0-1.96-.09q-6.02 3.64-11.81 7.06c-1.81 1.06-3.56-.29-3.7-2.15q-.68-9.3 5.47-15.88c4.33-4.62 9.69-6.28 15.95-6.46 2.75-.09 4.99-1.25 7.07-2.91q2.86-2.29 4.27 1.07 3.37 7.99 10.39 11.12.082.037.162.083a1.823 1.823 0 0 1 .578 2.627c-1.95 2.71-3.45 5.28-3.29 8.79.37 8.07-7.04 15.98-13.61 18.73q-8.23 3.44-17.38-1.58c-1.72-.95-2.86-3.28-.7-4.6q6.19-3.78 13.05-7.87a.545.545 0 0 0 .24-.62" style="fill-rule:nonzero" transform="translate(-4159.46 -1894.99)scale(4.72143)"/></svg>
